public/avatar/item1/69.svg

<svg xmlns:xlink="http://www.w3.org/1999/xlink" height="65.4" width="80.15" xmlns="http://www.w3.org/2000/svg"><use height="5.6" transform="translate(10.05 39.35)" width="5.6" xlink:href="#a"/><defs><radialGradient cx="0" cy="0" gradientTransform="translate(-19.05 28.2) scale(.0021)" gradientUnits="userSpaceOnUse" id="b" r="819.2" spreadMethod="pad"><stop offset="0" stop-color="#060"/><stop offset=".976" stop-color="#0c0"/></radialGradient><g id="a" fill-rule="evenodd"><path d="M-20.55 26.25v-.05l.15-.1.1-.05.25.2q.45.35-.35.3l-.15-.05-.05-.2v-.05h.05l-.05.05.05-.05m2.95.7-.05-.05q-.65-.8-1.8-.9.05-.15.25-.15l.25-.05.15.05q2.9.55 2 3.2-.1.2-.1-.05-.05-.85-.45-1.65l-.25-.4m-3.3 2.85q-.65-.65-.35-1.95h.05l.1.4q.3 1.2 1.3 2l.05.05q-.75-.15-1.15-.5m2.65-.8h-.4l-.05-.15.2-.2.3.3-.05.05m-1.35-.95q-.65-.6.15-.9 1.1.3.3.95l-.45-.05" fill="#fff" transform="translate(21.55 -25.55)"/><path d="m-20.6 26.3.05.2.15.05-.4.65h.1l1.05-.8v-.05q-.05-.2-.3-.15l-.1.05-.25-.2-.1.05q.45-.35.95-.45l.7-.1 1.45.4.5.45q.8.8.85 1.95l-.05.35q-.1.95-.8 1.65-.8.8-1.95.8-1.2 0-2-.8-.85-.85-.8-2-.05-1.15.8-1.95l.15-.1m3 .65q.35.6.3 1.5-.05 1.1-1.05 1.4-2.35.65-2.6-1.75l-.15.05v.1l-.1-.4h-.05q-.3 1.3.35 1.95.5.7 1.8.9 1.4.15 2.05-1 1.6-2.85-1.35-3.95h-.1l-.3.1-.15-.05-.25.05q-.2 0-.25.15 1.15.1 1.8.9l.05.05" fill="#ca8800" transform="translate(21.55 -25.55)"/><path d="M-20.4 26.55q.8.05.35-.3l.1-.05q.25-.05.3.15v.05l-1.05.8h-.1l.4-.65m-.7 1.7v-.1l.15-.05q.25 2.4 2.6 1.75 1-.3 1.05-1.4.05-.9-.3-1.5l.25.4q.4.8.45 1.65 0 .25.1.05.9-2.65-2-3.2l.3-.1h.1q2.95 1.1 1.35 3.95-.65 1.15-2.05 1-1.3-.2-1.8-.9.4.35 1.15.5l-.05-.05q-1-.8-1.3-2" fill="#ffd34f" transform="translate(21.55 -25.55)"/><path d="m-19.6 28.05.45.05q.8-.65-.3-.95-.8.3-.15.9" fill="url(#b)" transform="translate(21.55 -25.55)"/><path d="m-19.35 29.85.3.05h.1q.6-.05 1.05-.5.45-.5.5-1.15-.05-.7-.5-1.15-.2-.2-.45-.3l-.7-.2q-.7 0-1.15.5-.5.45-.5 1.15l.45 1.15-.45-1.15q0-.7.5-1.15.45-.5 1.15-.5l.7.2q.25.1.45.3.45.45.5 1.15-.05.65-.5 1.15-.45.45-1.05.5h-.1l-.3-.05-.1-.05h-.05l.05.05h.1m1.1-.85q-.75.9-2 .4h.05l.5.35.2.05-.2-.05-.5-.35h-.05q1.25.5 2-.4l.05-.05-.3-.3-.2.2.05.15h.4m-.8-2.4q.85.3 1.1 1.25.15.5-.1.85l-.15.25.15-.25q.25-.35.1-.85-.25-.95-1.1-1.25" fill="#007100" transform="translate(21.55 -25.55)"/><path d="M-19.35 29.85h-.1v-.05l.1.05" fill="#ffd042" transform="translate(21.55 -25.55)"/></g></defs></svg>

<?xml version="1.0" encoding="UTF-8" standalone="no"?>
<svg xmlns:xlink="http://www.w3.org/1999/xlink" height="65.4px" width="80.15px" xmlns="http://www.w3.org/2000/svg">
  <g transform="matrix(1.0, 0.0, 0.0, 1.0, 31.6, 13.8)">
    <use height="5.6" transform="matrix(1.0, 0.0, 0.0, 1.0, -21.55, 25.55)" width="5.6" xlink:href="#shape0"/>
  </g>
  <defs>
    <g id="shape0" transform="matrix(1.0, 0.0, 0.0, 1.0, 21.55, -25.55)">
      <path d="M-20.55 26.25 L-20.55 26.2 -20.4 26.1 -20.3 26.05 -20.05 26.25 Q-19.6 26.6 -20.4 26.55 L-20.55 26.5 -20.6 26.3 -20.6 26.25 -20.55 26.25 -20.6 26.3 -20.55 26.25 M-17.6 26.95 L-17.65 26.9 Q-18.3 26.1 -19.45 26.0 -19.4 25.85 -19.2 25.85 L-18.95 25.8 -18.8 25.85 Q-15.9 26.4 -16.8 29.05 -16.9 29.25 -16.9 29.0 -16.95 28.15 -17.35 27.35 L-17.6 26.95 M-20.9 29.8 Q-21.55 29.15 -21.25 27.85 L-21.2 27.85 -21.1 28.25 Q-20.8 29.45 -19.8 30.25 L-19.75 30.3 Q-20.5 30.15 -20.9 29.8 M-18.25 29.0 L-18.65 29.0 -18.7 28.85 -18.5 28.65 -18.2 28.95 -18.25 29.0 M-19.6 28.05 Q-20.25 27.45 -19.45 27.15 -18.35 27.45 -19.15 28.1 L-19.6 28.05" fill="#ffffff" fill-rule="evenodd" stroke="none"/>
      <path d="M-20.6 26.3 L-20.55 26.5 -20.4 26.55 -20.8 27.2 -20.7 27.2 -19.65 26.4 -19.65 26.35 Q-19.7 26.15 -19.95 26.2 L-20.05 26.25 -20.3 26.05 -20.4 26.1 Q-19.95 25.75 -19.45 25.65 L-18.75 25.55 -17.3 25.95 -16.8 26.4 Q-16.0 27.2 -15.95 28.35 L-16.0 28.7 Q-16.1 29.65 -16.8 30.35 -17.6 31.15 -18.75 31.15 -19.95 31.15 -20.75 30.35 -21.6 29.5 -21.55 28.35 -21.6 27.2 -20.75 26.4 L-20.6 26.3 M-17.6 26.95 Q-17.25 27.55 -17.3 28.45 -17.35 29.55 -18.35 29.85 -20.7 30.5 -20.95 28.1 L-21.1 28.15 -21.1 28.25 -21.2 27.85 -21.25 27.85 Q-21.55 29.15 -20.9 29.8 -20.4 30.5 -19.1 30.7 -17.7 30.85 -17.05 29.7 -15.45 26.85 -18.4 25.75 L-18.5 25.75 -18.8 25.85 -18.95 25.8 -19.2 25.85 Q-19.4 25.85 -19.45 26.0 -18.3 26.1 -17.65 26.9 L-17.6 26.95" fill="#ca8800" fill-rule="evenodd" stroke="none"/>
      <path d="M-20.4 26.55 Q-19.6 26.6 -20.05 26.25 L-19.95 26.2 Q-19.7 26.15 -19.65 26.35 L-19.65 26.4 -20.7 27.2 -20.8 27.2 -20.4 26.55 M-21.1 28.25 L-21.1 28.15 -20.95 28.1 Q-20.7 30.5 -18.35 29.85 -17.35 29.55 -17.3 28.45 -17.25 27.55 -17.6 26.95 L-17.35 27.35 Q-16.95 28.15 -16.9 29.0 -16.9 29.25 -16.8 29.05 -15.9 26.4 -18.8 25.85 L-18.5 25.75 -18.4 25.75 Q-15.45 26.85 -17.05 29.7 -17.7 30.85 -19.1 30.7 -20.4 30.5 -20.9 29.8 -20.5 30.15 -19.75 30.3 L-19.8 30.25 Q-20.8 29.45 -21.1 28.25" fill="#ffd34f" fill-rule="evenodd" stroke="none"/>
      <path d="M-19.6 28.05 L-19.15 28.1 Q-18.35 27.45 -19.45 27.15 -20.25 27.45 -19.6 28.05" fill="url(#gradient0)" fill-rule="evenodd" stroke="none"/>
      <path d="M-19.35 29.85 L-19.05 29.9 -18.95 29.9 Q-18.35 29.85 -17.9 29.4 -17.45 28.9 -17.4 28.25 -17.45 27.55 -17.9 27.1 -18.1 26.9 -18.35 26.8 L-19.05 26.6 Q-19.75 26.6 -20.2 27.1 -20.7 27.55 -20.7 28.25 L-20.25 29.4 -20.7 28.25 Q-20.7 27.55 -20.2 27.1 -19.75 26.6 -19.05 26.6 L-18.35 26.8 Q-18.1 26.9 -17.9 27.1 -17.45 27.55 -17.4 28.25 -17.45 28.9 -17.9 29.4 -18.35 29.85 -18.95 29.9 L-19.05 29.9 -19.35 29.85 -19.45 29.8 -19.5 29.8 -19.45 29.85 -19.35 29.85 M-18.25 29.0 Q-19.0 29.9 -20.25 29.4 L-20.2 29.4 -19.7 29.75 -19.5 29.8 -19.7 29.75 -20.2 29.4 -20.25 29.4 Q-19.0 29.9 -18.25 29.0 L-18.2 28.95 -18.5 28.65 -18.7 28.85 -18.65 29.0 -18.25 29.0 M-19.05 26.6 Q-18.2 26.9 -17.95 27.85 -17.8 28.35 -18.05 28.7 L-18.2 28.95 -18.05 28.7 Q-17.8 28.35 -17.95 27.85 -18.2 26.9 -19.05 26.6" fill="#007100" fill-rule="evenodd" stroke="none"/>
      <path d="M-19.35 29.85 L-19.45 29.85 -19.45 29.8 -19.35 29.85" fill="#ffd042" fill-rule="evenodd" stroke="none"/>
    </g>
    <radialGradient cx="0" cy="0" gradientTransform="matrix(0.0021, 0.0, 0.0, 0.0021, -19.05, 28.2)" gradientUnits="userSpaceOnUse" id="gradient0" r="819.2" spreadMethod="pad">
      <stop offset="0.0" stop-color="#006600"/>
      <stop offset="0.9764705882352941" stop-color="#00cc00"/>
    </radialGradient>
  </defs>
</svg>
